X: 88
M: 4/4
L: 1/8
K: G
[A2-D2] |\
[AD]B[AD][AD] F2[A2D2] | d2F2 [A3D3]d | "a."cc[e2A2] B2c2 | dcde f2[A2-D2] |
[AD]B[AD][AD] F2[A2D2] | d2F2 [A3D3]d | "a."cce2 B2c2 | d4 {B}=c2z2 ||[K:^f=c]
K: G
g6 B2 | cBA2 G2"b."[A2D2] | [E6G,6]FE | D4 F2A2 | d4 {B}c4 | B2G2 [A2D2]F2 |
f4 e2z2 | d2B2 G3E | D2G2 B3d | d2AB c2F2 | [G6G,6] "D.C."y |]
P: Var:
"a."c2 || "b."[A2E2] |]


